packages/admin/admin-icons/icons/favorite.svg

<svg xmlns="http://www.w3.org/2000/svg" width="16" height="16" viewBox="0 0 16 16"><path fill="#242424" fill-rule="evenodd" d="M5.3299588,5.02674216 L0.479073142,5.74260411 L0.385155686,5.76453284 C-0.00280188852,5.89063096 -0.138610724,6.40533669 0.169367713,6.7100296 L3.679205,10.1812224 L2.85069766,15.0856882 L2.84228533,15.1767502 C2.83598043,15.5935841 3.2788825,15.8877603 3.661517,15.68359 L8,13.3676078 L12.338483,15.68359 L12.4212129,15.71985 C12.8098577,15.8547447 13.222379,15.5181278 13.1493023,15.0856882 L12.3196774,10.1812224 L15.8306323,6.7100296 L15.8939136,6.63626029 C16.134751,6.30279984 15.9465426,5.8053743 15.5209269,5.74260411 L10.6689236,5.02674216 L8.50111391,0.566162416 C8.29613114,0.144612528 7.70386886,0.144612528 7.49888609,0.566162416 L5.3299588,5.02674216 Z"/></svg>

<svg width="16" height="16" fill="none" viewBox="0 0 16 16">
  <path fill="#242424" fill-rule="evenodd" d="m5.33 5.027-4.85.716-.095.022a.571.571 0 0 0-.216.945l3.51 3.471-.828 4.905-.009.09a.56.56 0 0 0 .82.508L8 13.368l4.339 2.316.082.036a.562.562 0 0 0 .728-.634l-.83-4.905 3.512-3.471.063-.074c.24-.333.053-.83-.373-.893l-4.852-.716L8.501.567a.555.555 0 0 0-1.002 0L5.33 5.026Z" clip-rule="evenodd"/>
</svg>
